packages/katcn/src/icons/svg/stars-solid.svg

<svg width="24" height="25" viewBox="0 0 24 25" fill="none" xmlns="http://www.w3.org/2000/svg">
<path d="M15.6 16.668C15.2 16.668 14.9 16.468 14.7 16.168L13.5 14.068C13 12.968 12 11.968 10.9 11.368L8.79999 10.168C8.49999 10.068 8.29999 9.66802 8.29999 9.36802C8.29999 8.96802 8.49999 8.66802 8.79999 8.46802L10.9 7.26802C12 6.66802 13 5.76802 13.6 4.56802L14.8 2.46802C14.9 2.16802 15.3 1.96802 15.6 1.96802C16 1.96802 16.3 2.16802 16.5 2.46802L17.7 4.56802C18.3 5.66802 19.3 6.66802 20.4 7.26802L22.5 8.46802C22.8 8.66802 23 8.96802 23 9.36802C23 9.76802 22.8 10.068 22.5 10.268L20.4 11.468C19.3 12.068 18.3 13.068 17.7 14.168L16.5 16.268C16.3 16.468 16 16.668 15.6 16.668Z" fill="black"/>
<path d="M6.5 23.968C6.1 23.968 5.8 23.768 5.6 23.468L5 22.268C4.5 21.268 3.7 20.468 2.7 19.968L1.5 19.368C1.2 19.168 1 18.768 1 18.468C1 18.068 1.2 17.768 1.5 17.568L2.7 16.968C3.7 16.468 4.5 15.668 5 14.668L5.6 13.468C6 12.868 7 12.868 7.4 13.468L8 14.668C8.5 15.668 9.3 16.468 10.3 16.968L11.5 17.568C11.8 17.768 12 18.068 12 18.468C12 18.868 11.8 19.168 11.5 19.368L10.4 19.968C9.4 20.468 8.6 21.268 8.1 22.268L7.5 23.468C7.2 23.768 6.9 23.968 6.5 23.968Z" fill="black"/>
</svg>

<svg xmlns="http://www.w3.org/2000/svg" fill="none" viewBox="0 0 24 25"><path fill="#000" d="M15.6 16.668c-.4 0-.7-.2-.9-.5l-1.2-2.1c-.5-1.1-1.5-2.1-2.6-2.7l-2.1-1.2c-.3-.1-.5-.5-.5-.8 0-.4.2-.7.5-.9l2.1-1.2c1.1-.6 2.1-1.5 2.7-2.7l1.2-2.1c.1-.3.5-.5.8-.5.4 0 .7.2.9.5l1.2 2.1c.6 1.1 1.6 2.1 2.7 2.7l2.1 1.2c.3.2.5.5.5.9s-.2.7-.5.9l-2.1 1.2c-1.1.6-2.1 1.6-2.7 2.7l-1.2 2.1c-.2.2-.5.4-.9.4m-9.1 7.3c-.4 0-.7-.2-.9-.5l-.6-1.2c-.5-1-1.3-1.8-2.3-2.3l-1.2-.6c-.3-.2-.5-.6-.5-.9 0-.4.2-.7.5-.9l1.2-.6c1-.5 1.8-1.3 2.3-2.3l.6-1.2c.4-.6 1.4-.6 1.8 0l.6 1.2c.5 1 1.3 1.8 2.3 2.3l1.2.6c.3.2.5.5.5.9s-.2.7-.5.9l-1.1.6c-1 .5-1.8 1.3-2.3 2.3l-.6 1.2c-.3.3-.6.5-1 .5"/></svg>
